src/icons/IconDocFilled/IconDocFilled_size_m.svg

<svg viewBox="0 0 24 24" xmlns="http://www.w3.org/2000/svg">
  <path
    fill-rule="evenodd"
    clip-rule="evenodd"
    d="M6 2C4.9 2 4.01 2.9 4.01 4L4 20C4 21.1 4.89 22 5.99 22H18C19.1 22 20 21.1 20 20V8L14.2929 2.29289C14.1054 2.10536 13.851 2 13.5858 2H6ZM14 9C13.4477 9 13 8.55228 13 8V3.5L18.5 9H14ZM7 13H17V15H7V13ZM13 16H7V18H13V16Z"
  />
</svg>

<svg viewBox="0 0 24 24" xmlns="http://www.w3.org/2000/svg">
  <path
    fill-rule="evenodd"
    clip-rule="evenodd"
    d="M6 2c-1.1 0-1.99.9-1.99 2L4 20c0 1.1.89 2 1.99 2H18c1.1 0 2-.9 2-2V8l-5.707-5.707A1 1 0 0013.586 2H6zm8 7a1 1 0 01-1-1V3.5L18.5 9H14zm-7 4h10v2H7v-2zm6 3H7v2h6v-2z"
  />
</svg>
